assets/img/braze_icons/pin-02.svg

<svg fill="none" height="24" viewBox="0 0 24 24" width="24" xmlns="http://www.w3.org/2000/svg"><path clip-rule="evenodd" d="m16.3838 2.41026c-.2557-.25576-.4933-.49338-.7055-.67029-.2221-.1851-.5201-.39521-.91-.47426-.5166-.10472-1.0536-.0013-1.4943.28777-.3327.21823-.5313.52397-.6687.7783-.1314.24306-.2637.55193-.4062.88436l-1.0846 2.53078c-.0243.05682-.0363.08451-.0454.10451l-.0006.00136-.001.00108c-.0152.01589-.0365.03725-.0802.08096l-1.56089 1.56089c-.06829.06829-.10203.10184-.12735.12547l-.00181.00167-.00239.00057c-.03371.00797-.08033.01743-.17504.03637l-3.70686.74138c-.43969.0879-.83508.16695-1.14544.25915-.3106.09227-.71182.24401-1.01526.58599-.38813.43742-.56537 1.02278-.48506 1.60208.06278.4528.31245.8016.5197 1.0507.20709.2489.49221.534.80929.851l2.8663 2.8663-4.94975 4.9498c-.39052.3905-.39052 1.0236 0 1.4142.39053.3905 1.02369.3905 1.41422 0l4.94975-4.9498 2.86639 2.8664c.317.3171.6021.6022.851.8093.2491.2073.5979.4569 1.0507.5197.5793.0803 1.1647-.0969 1.6021-.4851.342-.3034.4937-.7046.586-1.0152.0922-.3104.1712-.7058.2591-1.1455l.7414-3.7068c.0189-.0947.0284-.1413.0364-.1751l.0005-.0024.0017-.0018c.0236-.0253.0572-.059.1255-.1273l1.5609-1.5609c.0437-.0437.065-.065.0809-.0802l.0011-.001.0014-.0006c.02-.0091.0477-.0211.1045-.0454l2.5308-1.0846c.3324-.1425.6413-.2748.8843-.4062.2544-.1374.5601-.336.7783-.6687.2891-.4407.3925-.97773.2878-1.49427-.0791-.38997-.2892-.68794-.4743-.90999-.1769-.21222-.4145-.4498-.6703-.70551z" fill="#801ed7" fill-rule="evenodd"/></svg>

<svg width="24" height="24" viewBox="0 0 24 24" fill="none" xmlns="http://www.w3.org/2000/svg">
<path fill-rule="evenodd" clip-rule="evenodd" d="M16.3838 2.41026C16.1281 2.1545 15.8905 1.91688 15.6783 1.73997C15.4562 1.55487 15.1582 1.34476 14.7683 1.26571C14.2517 1.16099 13.7147 1.26441 13.274 1.55348C12.9413 1.77171 12.7427 2.07745 12.6053 2.33178C12.4739 2.57484 12.3416 2.88371 12.1991 3.21614L11.1145 5.74692C11.0902 5.80374 11.0782 5.83143 11.0691 5.85143L11.0685 5.85279L11.0675 5.85387C11.0523 5.86976 11.031 5.89112 10.9873 5.93483L9.42641 7.49572C9.35812 7.56401 9.32438 7.59756 9.29906 7.62119L9.29725 7.62286L9.29486 7.62343C9.26115 7.6314 9.21453 7.64086 9.11982 7.6598L5.41296 8.40118C4.97327 8.48908 4.57788 8.56813 4.26752 8.66033C3.95692 8.7526 3.5557 8.90434 3.25226 9.24632C2.86413 9.68374 2.68689 10.2691 2.7672 10.8484C2.82998 11.3012 3.07965 11.65 3.2869 11.8991C3.49399 12.148 3.77911 12.4331 4.09619 12.7501L6.96249 15.6164L2.01274 20.5662C1.62222 20.9567 1.62222 21.5898 2.01274 21.9804C2.40327 22.3709 3.03643 22.3709 3.42696 21.9804L8.37671 17.0306L11.2431 19.897C11.5601 20.2141 11.8452 20.4992 12.0941 20.7063C12.3432 20.9136 12.692 21.1632 13.1448 21.226C13.7241 21.3063 14.3095 21.1291 14.7469 20.7409C15.0889 20.4375 15.2406 20.0363 15.3329 19.7257C15.4251 19.4153 15.5041 19.0199 15.592 18.5802L16.3334 14.8734C16.3523 14.7787 16.3618 14.7321 16.3698 14.6983L16.3703 14.6959L16.372 14.6941C16.3956 14.6688 16.4292 14.6351 16.4975 14.5668L18.0584 13.0059C18.1021 12.9622 18.1234 12.9409 18.1393 12.9257L18.1404 12.9247L18.1418 12.9241C18.1618 12.915 18.1895 12.903 18.2463 12.8787L20.7771 11.7941C21.1095 11.6516 21.4184 11.5193 21.6614 11.3879C21.9158 11.2505 22.2215 11.0519 22.4397 10.7192C22.7288 10.2785 22.8322 9.74147 22.7275 9.22493C22.6484 8.83496 22.4383 8.53699 22.2532 8.31494C22.0763 8.10272 21.8387 7.86514 21.5829 7.60943L16.3838 2.41026Z" fill="#801ED7"/>
</svg>
